!! 00045] TT[TB
!! Zh. Ch. XM-8001, XM75116001), Peking: LP 23205/206)
!!!OTL: Haojiu meidao zhetiao po
!!!ARE: Asia, China,ÿHunan, Xiangxi
!! Ethnic Group: Han
!! MM,
!!!SCT: C1231
!!!YEM: Copyright 1995, estate of Helmut Schaffrath.
**kern
*ICvox
*Ivox
*M2/4
*k[]
*C:
{8.dd
16cc
8dd
8cc
=1
16cc
8.a
4dd
=2
16dd
16ee
16cc
16dd
8ee
8dd
=3
16cc
16cc
16cc
16cc
8.dd
16ee
=4
16cc
16dd
16cc
16a
4a}
=5
{8dd
16a
16cc
8dd
16cc
16a
=6
8.g
16a
8.cc
16dd
=7
8gg
16dd
16ee
16dd
16cc
8a
=8
8g
8a
4g}
=9
{8.dd
16cc
8dd
8cc
=10
16cc
8.a
4dd
=11
16dd
16ee
16cc
16dd
8ee
8dd
=12
16cc
16cc
16cc
16cc
8.dd
16ee
=13
16cc
16dd
16cc
16a
4a}
=14
{8dd
16a
16cc
8dd
16cc
16a
=15
8.g
16a
8.cc
16dd
=16
8gg
16dd
16ee
16dd
16cc
8a
=17
8g
8a
4g}
=18
{8ee
16dd
16ee
16cc
16dd
16cc
16a
=19
8.g
16a
4cc
=20
4gg
4aa
=21
2gg
=22
2gg]}
==
!!!AGN: Shange. Xin minge
!! Noten kopiert. Von der Platte nur B-Seite, da A lediglich
!!    revolutionaere Lieder enthaelt.
!!    Vereinzelt Verzierungen.
!!    T.8 bzw.17, letzte Note unleserlich. Vgl. T.21!
!!!ONB: ESAC (Essen Associative Code) Database: CHINA
!!!AMT: simple duple
!!!AIN: vox
!!!EED: Helmut Schaffrath
!!!EEV: 1.0
*-
!!!OTL: Tuichuan haozi
!!!ARE: Asia, China,ÿShanxi, Hequ
!! I, 322
!!!SCT: C1440
!!!YEM: Copyright 1995, estate of Helmut Schaffrath.
**kern
*ICvox
*Ivox
*M2/4
*k[b-e-]
*B-:
{8gg
16gg
16ff
8gg
16ddd
16ccc
=1
2bb-
=2
8gg
16gg
16ff
8gg
16ddd
16ccc
=3
2bb-}
=4
{8.ff
16bb-
8gg
8eee-
=5
8ddd
16ccc
16bb-
4ff
=6
8ddd
8ff
16gg
16ff
16dd
16cc
=7
2b-}
=8
{2ddd
=9
8ddd
16ddd
16ccc
4bb-
=10
8ddd
16ddd
16ddd
8ccc
8bb-
=11
8ccc
8ddd
16aa
16gg
16ff
16gg
=12
4bb-
4bb-}
=13
{16aa
16gg
16ff
16gg
4ccc
=14
8ccc
16ddd
16ccc
8bb-
16ccc
16bb-
=15
8gg
8ff
8dd
16cc
16dd
=16
4ff
4ff}
=17
{8ddd
16ddd
16ccc
4bb-
=18
8ddd
16ddd
16ccc
4bb-
=19
8dd
4bb-
16aa
16gg
=20
2ff}
=21
{8dd
8bb-
8aa
8gg
=22
8aa
16aa
16gg
4ff
=23
8ff
8cc
8dd
16dd
16cc
=24
2b-}
=25
{8dd
8bb-
8aa
8gg
=26
8aa
16aa
16gg
4ff
=27
8ff
8cc
8dd
16dd
16cc
=28
2b-}
=29
{8gg
16gg
16ff
8gg
16ddd
16ccc
=30
2bb-
=31
8gg
16gg
16ff
8gg
16ddd
16ccc
=32
2bb-}
=33
{8.ff
16bb-
8gg
8eee-
=34
8ddd
16ccc
16bb-
4ff
=35
8ddd
8ff
16gg
16ff
16dd
16cc
=36
2b-}
==
!!!AGN: Haozi, Xingchuan haozi
!!!ONB: ESAC (Essen Associative Code) Database: HUANG
!!!AMT: simple duple
!!!AIN: vox
!!!EED: Helmut Schaffrath
!!!EEV: 1.0
*-
